icons/1_Primary/Newegg.svg

<svg width="1024" height="1024" fill="none" xmlns="http://www.w3.org/2000/svg"><g clip-path="url(#a)"><path d="M512 1024c282.77 0 512-229.23 512-512S794.77 0 512 0 0 229.23 0 512s229.23 512 512 512Z" fill="#F8C18C"/><path d="m490.63 383.37.66.42c-36.59 14.95-73.54 45.34-94 77.69-26.41 38.28-46.76 134.89 39.36 179.86a119.703 119.703 0 0 1-53.65 10 104.187 104.187 0 0 1-51.55-15.91c-54.04-34.15-66.45-111.54-27.74-172.87 28.93-45.81 88.77-86.43 139.75-89.8 2.16-.14 4.3-.217 6.42-.23 14.86-.05 28.79 3.28 40.75 10.84Zm-140.41-10c-52.36-.1-116.43 42.11-146.68 90-38.74 61.34-26.31 138.72 27.77 172.88 31.12 19.65 69.25 20.68 103.4 6.32-4.59-2.034-9.025-4.4-13.27-7.08-54.08-34.12-66.49-111.49-27.78-172.84 20.86-33 57.8-63.36 95.89-79-11.62-7.05-25.04-10.23-39.33-10.26v-.02Zm157.08 123c-1.86 0-3.143.57-3.85 1.71-.73 1.14-1.74 4.2-3 9.14l-1.67 6.46 7.73-.05 1.67-6.45c1.19-4.58 1.69-7.52 1.54-8.84a2.046 2.046 0 0 0-.232-.827 2.05 2.05 0 0 0-2.178-1.073l-.01-.07Zm127.19-11.52c-1.71 35.51-12.62 72.64-30.12 100.36-27.38 43.35-73 67-116.46 65.19a104.304 104.304 0 0 1-51.56-15.93C413 619.83 397.5 597.07 390.43 571l23.87-.21 15.34-59.29c1.713-6.613 3.01-10.68 3.89-12.2a4.472 4.472 0 0 1 4.05-2.31c1.79 0 2.68.64 2.73 2 .05 1.36-.73 5-2.31 11l-15.72 60.76 26.65-.22 15.88-61.45c2-7.66 3-13.123 3-16.39a10.377 10.377 0 0 0-3.46-8.13c-2.33-2.13-5.77-3.16-10.3-3.13-3.567.004-7.082.85-10.26 2.47a30.096 30.096 0 0 0-8.94 7.29l2.64-8.07-27.19.23-21.26 82.2c-7.36-33.1-1.38-70.82 19.5-103.89 28.94-45.82 88.79-86.43 139.76-89.8 17.24-1.15 33.48 2 47.14 10.62 28.83 18.19 40.45 57.2 39.15 99l-21.6.17c-8 18.827-14.377 35.653-19.13 50.48l7.52-50.38-21.71.19a80380.858 80380.858 0 0 1-19.12 50.47c4.46-31.333 6.847-48.127 7.16-50.38l-22.71.17-11.42 87.61 28.62-.26 7.68-19.12a586.362 586.362 0 0 0 9.4-23.49c-2.433 17.653-4.26 31.83-5.48 42.53l28.63-.26 32.06-84.36Zm-102 31.1c2.21-8.51 2.91-15.09 2.18-19.77a16.135 16.135 0 0 0-7.28-11.2c-4.12-2.78-9.91-4.16-17.37-4.09a42.282 42.282 0 0 0-17.08 3.67 31.362 31.362 0 0 0-12.77 10.25c-3.213 4.447-5.807 10.497-7.78 18.15l-6.63 25.56c-1.68 6.51-2.52 11.47-2.47 14.88a18.68 18.68 0 0 0 2.56 9.32c1.647 2.833 4.417 5.043 8.31 6.63a36.549 36.549 0 0 0 14.21 2.3 41.875 41.875 0 0 0 15.1-2.58 33.894 33.894 0 0 0 11.42-7.51 36.355 36.355 0 0 0 7.18-9.36 68.337 68.337 0 0 0 4.25-12.5l1.68-6.4-25.31.21-3 11.59c-1.133 4.367-2.227 7.317-3.28 8.85a5.381 5.381 0 0 1-4.57 2.31c-1.61 0-2.54-.55-2.81-1.69s.12-3.69 1.15-7.67l4.91-19 34.37-.29 3.03-11.66Zm128.68-3.85 1.7-6.45c1.27-5 2.26-8 3-9.15.74-1.15 2-1.7 3.87-1.72a2.073 2.073 0 0 1 2.39 2c.16 1.32-.37 4.27-1.53 8.84l-1.67 6.45-7.76.03Zm30.69 13.9 3-11.63c2.193-8.493 2.92-15.08 2.18-19.76a16.171 16.171 0 0 0-7.29-11.2c-4.133-2.8-9.92-4.167-17.36-4.1a41.768 41.768 0 0 0-17.08 3.67 31.235 31.235 0 0 0-12.76 10.26c-3.2 4.44-5.82 10.5-7.8 18.16l-6.61 25.6c-1.69 6.53-2.51 11.48-2.46 14.89.017 3.28.896 6.497 2.55 9.33 1.64 2.83 4.41 5 8.3 6.61a36.548 36.548 0 0 0 14.2 2.33c5.156.061 10.28-.82 15.12-2.6a33.822 33.822 0 0 0 11.42-7.52 37.19 37.19 0 0 0 7.18-9.36 66.656 66.656 0 0 0 4.24-12.49l1.69-6.47-25.31.21-3 11.58c-1.127 4.36-2.22 7.31-3.28 8.85a5.298 5.298 0 0 1-4.57 2.31c-1.62 0-2.55-.55-2.81-1.69-.26-1.14.13-3.69 1.14-7.68l4.91-19 34.36-.3m41.4 4.68c-1.29 5-2.39 8.19-3.29 9.61a4.474 4.474 0 0 1-4 2.13c-1.56 0-2.41-.55-2.59-1.73-.18-1.18.24-3.7 1.27-7.62l7.63-29.52c1-3.69 1.91-6.18 2.89-7.45a4.545 4.545 0 0 1 3.76-1.92c1.54 0 2.41.54 2.61 1.63.2 1.09-.21 3.66-1.25 7.67l-7.03 27.2ZM773 480.07l-24.8.22-3.62 6.71a15.001 15.001 0 0 0-5.82-6.1 17.005 17.005 0 0 0-8.57-2c-6.08.06-11.11 1.93-15 5.59-3.89 3.66-7 9.68-9.16 18l-8.24 31.81c-1.547 5.8-2.143 10.267-1.79 13.4a10.475 10.475 0 0 0 4.41 7.57c2.6 1.9 6.31 2.84 11.09 2.81a24.298 24.298 0 0 0 8.39-1.66 36.085 36.085 0 0 0 8.43-4.78l-1.73 6.71c-1 3.83-2 6.36-3 7.58a5.516 5.516 0 0 1-4.5 1.85c-2.89 0-3.78-1.94-2.75-5.9l-25.85.23c-2 8.48-.817 14.147 3.55 17 4.367 2.853 10.81 4.243 19.33 4.17a59.372 59.372 0 0 0 17.73-2.52 33.408 33.408 0 0 0 12.37-6.89c3.34-3 5.55-5.84 6.67-8.52 1.12-2.68 2.86-8.56 5.25-17.7L773 480.07Zm30.33 50.08c-1.293 4.987-2.397 8.187-3.31 9.6a4.39 4.39 0 0 1-4.02 2.15c-1.56 0-2.44-.56-2.59-1.72-.15-1.16.24-3.72 1.25-7.63l7.68-29.55c1-3.69 1.94-6.17 2.85-7.44a4.642 4.642 0 0 1 3.8-1.92c1.53 0 2.42.52 2.59 1.63.17 1.11-.22 3.66-1.25 7.68l-7 27.2ZM843 479.48l-24.77.21-3.61 6.68a14.871 14.871 0 0 0-5.8-6.09 16.897 16.897 0 0 0-8.57-2c-6.11 0-11.09 1.92-15.07 5.6-3.98 3.68-7 9.67-9.16 18l-8.22 31.81c-1.49 5.82-2.07 10.28-1.71 13.42a10.476 10.476 0 0 0 1.372 4.275 10.472 10.472 0 0 0 3.038 3.305c2.6 1.9 6.28 2.81 11.09 2.79a23.515 23.515 0 0 0 8.37-1.66 35.103 35.103 0 0 0 8.43-4.77l-1.74 6.72c-1 3.83-2 6.35-3 7.58a5.503 5.503 0 0 1-4.5 1.85c-2.88 0-3.75-1.94-2.75-5.9l-25.85.21c-2 8.5-.84 14.15 3.58 17 4.42 2.85 10.81 4.24 19.31 4.15a58.925 58.925 0 0 0 17.73-2.48 33.797 33.797 0 0 0 12.39-6.92c3.34-3 5.53-5.83 6.65-8.49s2.88-8.56 5.23-17.7L843 479.48Z" fill="#fff"/></g><defs><clipPath id="a"><path fill="#fff" d="M0 0h1024v1024H0z"/></clipPath></defs></svg>

<svg width="1024" height="1024" viewBox="0 0 1024 1024" fill="none" xmlns="http://www.w3.org/2000/svg">
<g clip-path="url(#clip0_2_2910)">
<path d="M512 1024C794.77 1024 1024 794.77 1024 512C1024 229.23 794.77 0 512 0C229.23 0 0 229.23 0 512C0 794.77 229.23 1024 512 1024Z" fill="#F8C18C"/>
<path d="M490.63 383.37L491.29 383.79C454.7 398.74 417.75 429.13 397.29 461.48C370.88 499.76 350.53 596.37 436.65 641.34C419.775 648.76 401.415 652.182 383 651.34C364.718 650.655 346.938 645.167 331.45 635.43C277.41 601.28 265 523.89 303.71 462.56C332.64 416.75 392.48 376.13 443.46 372.76C445.62 372.62 447.76 372.543 449.88 372.53C464.74 372.48 478.67 375.81 490.63 383.37ZM350.22 373.37C297.86 373.27 233.79 415.48 203.54 463.37C164.8 524.71 177.23 602.09 231.31 636.25C262.43 655.9 300.56 656.93 334.71 642.57C330.12 640.536 325.685 638.17 321.44 635.49C267.36 601.37 254.95 524 293.66 462.65C314.52 429.65 351.46 399.29 389.55 383.65C377.93 376.6 364.51 373.42 350.22 373.39V373.37ZM507.3 496.37C505.44 496.37 504.157 496.94 503.45 498.08C502.72 499.22 501.71 502.28 500.45 507.22L498.78 513.68L506.51 513.63L508.18 507.18C509.37 502.6 509.87 499.66 509.72 498.34C509.702 498.051 509.623 497.769 509.488 497.513C509.354 497.256 509.167 497.031 508.939 496.852C508.712 496.672 508.449 496.543 508.169 496.472C507.888 496.401 507.595 496.39 507.31 496.44L507.3 496.37ZM634.49 484.85C632.78 520.36 621.87 557.49 604.37 585.21C576.99 628.56 531.37 652.21 487.91 650.4C469.623 649.705 451.842 644.211 436.35 634.47C413 619.83 397.5 597.07 390.43 571L414.3 570.79L429.64 511.5C431.353 504.887 432.65 500.82 433.53 499.3C433.927 498.58 434.515 497.983 435.23 497.575C435.944 497.168 436.758 496.965 437.58 496.99C439.37 496.99 440.26 497.63 440.31 498.99C440.36 500.35 439.58 503.99 438 509.99L422.28 570.75L448.93 570.53L464.81 509.08C466.81 501.42 467.81 495.957 467.81 492.69C467.867 491.164 467.586 489.644 466.988 488.239C466.39 486.833 465.489 485.577 464.35 484.56C462.02 482.43 458.58 481.4 454.05 481.43C450.483 481.434 446.968 482.28 443.79 483.9C440.368 485.731 437.332 488.206 434.85 491.19L437.49 483.12L410.3 483.35L389.04 565.55C381.68 532.45 387.66 494.73 408.54 461.66C437.48 415.84 497.33 375.23 548.3 371.86C565.54 370.71 581.78 373.86 595.44 382.48C624.27 400.67 635.89 439.68 634.59 481.48L612.99 481.65C604.99 500.477 598.613 517.303 593.86 532.13L601.38 481.75L579.67 481.94C568.197 512.24 561.823 529.063 560.55 532.41C565.01 501.077 567.397 484.283 567.71 482.03L545 482.2L533.58 569.81L562.2 569.55L569.88 550.43C573.213 542.59 576.347 534.76 579.28 526.94C576.847 544.593 575.02 558.77 573.8 569.47L602.43 569.21L634.49 484.85ZM532.49 515.95C534.7 507.44 535.4 500.86 534.67 496.18C534.326 493.902 533.499 491.723 532.243 489.792C530.987 487.86 529.333 486.219 527.39 484.98C523.27 482.2 517.48 480.82 510.02 480.89C504.133 480.911 498.316 482.161 492.94 484.56C487.851 486.785 483.444 490.323 480.17 494.81C476.957 499.257 474.363 505.307 472.39 512.96L465.76 538.52C464.08 545.03 463.24 549.99 463.29 553.4C463.311 556.678 464.194 559.892 465.85 562.72C467.497 565.553 470.267 567.763 474.16 569.35C478.697 571.051 483.528 571.833 488.37 571.65C493.519 571.726 498.638 570.851 503.47 569.07C507.747 567.368 511.633 564.813 514.89 561.56C517.777 558.852 520.202 555.69 522.07 552.2C523.887 548.18 525.31 543.994 526.32 539.7L528 533.3L502.69 533.51L499.69 545.1C498.557 549.467 497.463 552.417 496.41 553.95C495.9 554.684 495.215 555.28 494.417 555.684C493.619 556.087 492.734 556.285 491.84 556.26C490.23 556.26 489.3 555.71 489.03 554.57C488.76 553.43 489.15 550.88 490.18 546.9L495.09 527.9L529.46 527.61L532.49 515.95ZM661.17 512.1L662.87 505.65C664.14 500.65 665.13 497.65 665.87 496.5C666.61 495.35 667.87 494.8 669.74 494.78C670.031 494.734 670.329 494.752 670.614 494.83C670.898 494.909 671.162 495.048 671.389 495.238C671.615 495.427 671.798 495.663 671.926 495.929C672.054 496.195 672.124 496.485 672.13 496.78C672.29 498.1 671.76 501.05 670.6 505.62L668.93 512.07L661.17 512.1ZM691.86 526L694.86 514.37C697.053 505.877 697.78 499.29 697.04 494.61C696.693 492.331 695.863 490.153 694.606 488.222C693.349 486.29 691.693 484.65 689.75 483.41C685.617 480.61 679.83 479.243 672.39 479.31C666.502 479.316 660.681 480.566 655.31 482.98C650.22 485.205 645.815 488.746 642.55 493.24C639.35 497.68 636.73 503.74 634.75 511.4L628.14 537C626.45 543.53 625.63 548.48 625.68 551.89C625.697 555.17 626.576 558.387 628.23 561.22C629.87 564.05 632.64 566.22 636.53 567.83C641.062 569.54 645.889 570.332 650.73 570.16C655.886 570.221 661.01 569.34 665.85 567.56C670.129 565.857 674.015 563.298 677.27 560.04C680.146 557.322 682.57 554.162 684.45 550.68C686.273 546.667 687.693 542.483 688.69 538.19L690.38 531.72L665.07 531.93L662.07 543.51C660.943 547.87 659.85 550.82 658.79 552.36C658.285 553.1 657.602 553.7 656.802 554.104C656.003 554.508 655.115 554.702 654.22 554.67C652.6 554.67 651.67 554.12 651.41 552.98C651.15 551.84 651.54 549.29 652.55 545.3L657.46 526.3L691.82 526M733.22 530.68C731.93 535.68 730.83 538.87 729.93 540.29C729.513 540.969 728.922 541.524 728.219 541.898C727.516 542.273 726.726 542.453 725.93 542.42C724.37 542.42 723.52 541.87 723.34 540.69C723.16 539.51 723.58 536.99 724.61 533.07L732.24 503.55C733.24 499.86 734.15 497.37 735.13 496.1C735.555 495.5 736.119 495.012 736.774 494.678C737.429 494.343 738.155 494.172 738.89 494.18C740.43 494.18 741.3 494.72 741.5 495.81C741.7 496.9 741.29 499.47 740.25 503.48L733.22 530.68ZM773 480.07L748.2 480.29L744.58 487C743.263 484.452 741.243 482.335 738.76 480.9C736.128 479.493 733.173 478.803 730.19 478.9C724.11 478.96 719.08 480.83 715.19 484.49C711.3 488.15 708.19 494.17 706.03 502.49L697.79 534.3C696.243 540.1 695.647 544.567 696 547.7C696.145 549.205 696.614 550.662 697.375 551.968C698.136 553.275 699.172 554.402 700.41 555.27C703.01 557.17 706.72 558.11 711.5 558.08C714.373 558.027 717.214 557.465 719.89 556.42C722.902 555.213 725.738 553.605 728.32 551.64L726.59 558.35C725.59 562.18 724.59 564.71 723.59 565.93C723.032 566.562 722.335 567.058 721.555 567.379C720.775 567.699 719.932 567.837 719.09 567.78C716.2 567.78 715.31 565.84 716.34 561.88L690.49 562.11C688.49 570.59 689.673 576.257 694.04 579.11C698.407 581.963 704.85 583.353 713.37 583.28C719.373 583.341 725.351 582.492 731.1 580.76C735.668 579.374 739.886 577.024 743.47 573.87C746.81 570.87 749.02 568.03 750.14 565.35C751.26 562.67 753 556.79 755.39 547.65L773 480.07ZM803.33 530.15C802.037 535.137 800.933 538.337 800.02 539.75C799.611 540.442 799.02 541.009 798.311 541.388C797.602 541.767 796.803 541.944 796 541.9C794.44 541.9 793.56 541.34 793.41 540.18C793.26 539.02 793.65 536.46 794.66 532.55L802.34 503C803.34 499.31 804.28 496.83 805.19 495.56C805.624 494.96 806.196 494.472 806.857 494.138C807.518 493.804 808.249 493.634 808.99 493.64C810.52 493.64 811.41 494.16 811.58 495.27C811.75 496.38 811.36 498.93 810.33 502.95L803.33 530.15ZM843 479.48L818.23 479.69L814.62 486.37C813.313 483.824 811.299 481.71 808.82 480.28C806.19 478.868 803.233 478.178 800.25 478.28C794.14 478.28 789.16 480.2 785.18 483.88C781.2 487.56 778.18 493.55 776.02 501.88L767.8 533.69C766.31 539.51 765.73 543.97 766.09 547.11C766.233 548.617 766.701 550.076 767.462 551.385C768.224 552.693 769.26 553.821 770.5 554.69C773.1 556.59 776.78 557.5 781.59 557.48C784.458 557.442 787.294 556.879 789.96 555.82C792.977 554.627 795.814 553.022 798.39 551.05L796.65 557.77C795.65 561.6 794.65 564.12 793.65 565.35C793.092 565.983 792.396 566.479 791.616 566.8C790.835 567.121 789.992 567.257 789.15 567.2C786.27 567.2 785.4 565.26 786.4 561.3L760.55 561.51C758.55 570.01 759.71 575.66 764.13 578.51C768.55 581.36 774.94 582.75 783.44 582.66C789.442 582.741 795.421 581.905 801.17 580.18C805.743 578.776 809.966 576.418 813.56 573.26C816.9 570.26 819.09 567.43 820.21 564.77C821.33 562.11 823.09 556.21 825.44 547.07L843 479.48Z" fill="white"/>
</g>
<defs>
<clipPath id="clip0_2_2910">
<rect width="1024" height="1024" fill="white"/>
</clipPath>
</defs>
</svg>
